X: 0
T: Il Est He
Z: Traditional French
Z: Public Domain
L: 1/4
M: 4/4
Q: 1/4=120
V: P1 name="Bass    (BB)"
%%MIDI program 1 32
V: P2 name="Drums   (BB)"
%%MIDI program 2 0
V: P3 name="Drums   (BB)-2"
%%MIDI program 3 0
V: P4 name="Piano   (BB)"
%%MIDI program 4 0
V: P5 name="Melody  (BB)"
%%MIDI program 5 24
V: P6 name="Melody  (BB)-2"
%%MIDI program 6 24
K: G
[V: P1]  z4 | z4 | D,,z/8 A,,,3/4-A,,,/8 D,,3/4D,,/4 F,,/-F,,/8A,,3/8 | A,,,z/8 E,,3/4-E,,/8 A,,,3/4A,,,/4 C,,/-C,,/8E,,3/8 |z/8 A,,,3/4-A,,,/8z/8 A,,,/A,,,3/8z/8 C,,3/4-C,,/8z/8 E,,/=F,,3/8 | G,,z/8 D,,3/4-D,,/8 G,,3/4G,,/4 B,,/-B,,/8D,3/8 | D,, D, [B,,^C,] A,, | D,, A,,, D,,3/4D,,/4 F,,/A,,/ | G,, D,,z/8 G,,3/4-G,,/8z/8 D,,3/4-D,,/8 |z/8 G,,3/4-G,,/8z/8 D,,3/4-D,,/8z/8 G,,3/4-G,,/8z/8 D,,3/4-D,,/8 |z/8 D,,3/4-D,,/8z/8 D,,3/4-D,,/8z/8 G,,3/4-G,,/8z/8 G,,3/4-G,,/8 | G,,z/8 D,,3/4-D,,/8 G,,3/4G,,/4 B,,/-B,,/8D,3/8 |z/8 G,,3/4-G,,/8z/8 D,,3/4-D,,/8 G,,3/4-G,,/8G,,/8z/8 G,,3/8G,,/ |z/8 G,,3/4-G,,/8z/8 G,,3/4-G,,/8 C,, G,, |z/8 G,,3/4-G,,/8z/8 G,,3/4-G,,/8z/8 G,,3/4-G,,/8z/8 G,,3/4-G,,/8 |z/8 G,,3/4-G,,/8z/8 G,,3/4-G,,/8 D,,z/8 F,,/A,,3/8 |z/8 D,,3/4-D,,/8z/8 D,,3/4-D,,/8z/8 G,,3/4-G,,/8z/8 G,,/G,,3/8 | G,,z/8 D,,3/4-D,,/8 G,, B,,,/-B,,,/8G,,,3/8 |z/8 D,,3/4-D,,/8z/8 E,,/F,,3/8z/8 G,,3/4-G,,/8z/8 E,,/F,,3/8 | G,,z/8 D,,3/4-D,,/8z/8 G,,3/4-G,,/8z/8 D,,3/4-D,,/8 | G,,z/8 D,3/4-D,/8z/8 G,,3/4-G,,/8z/8 D,3/4-D,/8 |z/8 G,,3/4-G,,/8z/8 G,,3/4-G,,/8 C,, G,, | D,,z/8 A,,3/4-A,,/8 D,, D,,/-D,,/8D,,3/8 | G,,z/8 D,3/4-D,/8z/8 G,,3/4-G,,/8z/8 D,3/4-D,/8 |z/8 G,,3/4-G,,/8z/8 G,,/G,,3/8z/8 D,,3/4-D,,/8z/8 D,,3/4-D,,/8 |z/8 G,,3/4-G,,/8z/8 G,,3/4-G,,/8 G,, E,, |z/8 A,,,3/4-A,,,/8z/8 A,,,/A,,,3/8z/8 G,,3/4-G,,/8z/8 B,,,/G,,,3/8 | D,,z/8 A,,3/4-A,,/8 D,, E,,/-E,,/8F,,3/8 | G,,z/8 B,,/D,3/8z/8 A,,,3/4-A,,,/8z/8 A,,,3/4-A,,,/8 |z/8 G,,3/4-G,,/8z/8 G,,3/4-G,,/8z/8 C,,3/4-C,,/8z/8 C,,/C,,3/8 |z/8 A,,,3/4-A,,,/8z/8 A,,,3/4-A,,,/8z/8 A,,,3/4-A,,,/8z/8 A,,,3/4-A,,,/8 |z/8 G,,3/4-G,,/8z/8 G,,3/4-G,,/8 D,,z/8 F,,/A,,3/8 | G,,z/8 B,,/D,3/8z/8 G,,3/4-G,,/8z/8 G,,3/4-G,,/8 |z/8 G,,3/4-G,,/8z/8 G,,3/4-G,,/8 C,, G,, |z/8 G,,3/4-G,,/8z/8 G,,3/4-G,,/8z/8 G,,3/4-G,,/8z/8 G,,3/4-G,,/8 |z/8 G,,3/4-G,,/8z/8 G,,/G,,3/8 D,,z/8 F,,/A,,3/8 |z/8 G,,3/4-G,,/8z/8 G,,3/4-G,,/8z/8 G,,3/4-G,,/8z/8 G,,/G,,3/8 | G,,z/8 B,,/D,3/8 C,, G,, |z/8 A,,,3/4-A,,,/8z/8 A,,,/A,,,3/8z/8 A,,,3/4-A,,,/8z/8 A,,,3/4-A,,,/8 |z/8 G,,3/4-G,,/8z/8 G,,3/4-G,,/8 D,,z/8 F,,/A,,3/8 | G,,z/8 B,,/D,3/8 G,,z/8 C,,/E,,3/8 |z/8 G,,3/4-G,,/8z/8 G,,3/4-G,,/8 C,, G,, |z/8 G,,3/4-G,,/8z/8 G,,3/4-G,,/8z/8 G,,3/4-G,,/8z/8 G,,/G,,3/8 | D,, D,,z/8 D,,3/4-D,,/8z/8 D,,/D,,3/8 | G,,z/8 D,,3/4-D,,/8 G,, D,, | G,, D,, G,,3/4G,,/4 B,,/-B,,/8D,3/8 |z/8 D,,3/4-D,,/8z/8 D,,3/4-D,,/8z/8 G,,3/4-G,,/8z/8 G,,3/4-G,,/8 |z/8 G,,3/4-G,,/8z/8 D,,3/4-D,,/8 G,,3/4-G,,/8G,,/8z/8 G,,3/8G,,/ | G,,z/8 D,3/4-D,/8z/8 G,,3/4-G,,/8z/8 D,3/4-D,/8 |z/8 G,,3/4-G,,/8z/8 G,,/G,,3/8 C,, G,, |z/8 G,,3/4-G,,/8z/8 G,,/G,,3/8z/8 G,,3/4-G,,/8z/8 G,,3/4-G,,/8 |z/8 G,,3/4-G,,/8z/8 G,,/G,,3/8z/8 D,,3/4-D,,/8z/8 B,,,/^C,,3/8 |z/8 D,,3/4-D,,/8z/8 D,,3/4-D,,/8z/8 G,,3/4-G,,/8z/8 G,,3/4-G,,/8 | G,,z/8 D,,3/4-D,,/8 G,,3/4G,,/4 B,,/-B,,/8D,3/8 |z/8 D,,3/4-D,,/8z/8 D,,3/4-D,,/8z/8 G,,3/4-G,,/8z/8 G,,3/4-G,,/8 |z/8 G,,3/4-G,,/8z/8 D,,3/4-D,,/8 G,,3/4-G,,/8G,,/8z/8 G,,3/8G,,/ |z/8 G,,3/4-G,,/8z/8 D,,3/4-D,,/8 G,,3/4-G,,/8G,,/8z/8 E,,3/8A,,/ |z/8 G,,3/4-G,,/8z/8 G,,3/4-G,,/8 C,, G,, | D,,z/8 A,,3/4-A,,/8z/8 D,,3/4-D,,/8z/8 A,,3/4-A,,/8 | G,,z/8 D,,3/4-D,,/8z/8 G,,3/4-G,,/8z/8 D,,3/4-D,,/8 |z/8 G,,3/4-G,,/8z/8 G,,3/4-G,,/8z/8 D,,3/4-D,,/8z/8 D,,/D,,3/8 |z/8 G,,3/4-G,,/8z/8 G,,3/4-G,,/8 G,, E,, | A,,,z/8 C,,/E,,3/8z/8 G,,3/4-G,,/8z/8 G,,3/4-G,,/8 | D,,z/8 A,,3/4-A,,/8z/8 D,,3/4-D,,/8z/8 A,,3/4-A,,/8 |z/8 G,,3/4-G,,/8z/8 G,,3/4-G,,/8z/8 A,,,3/4-A,,,/8z/8 A,,,/A,,,3/8 |z/8 G,,3/4-G,,/8z/8 G,,3/4-G,,/8 C,,z/8 E,,/G,,3/8 |z/8 A,,,3/4-A,,,/8z/8 A,,,3/4-A,,,/8z/8 A,,,3/4-A,,,/8z/8 A,,,/A,,,3/8 |z/8 G,,3/4-G,,/8z/8 B,,,/G,,,3/8z/8 D,,3/4-D,,/8z/8 D,,3/4-D,,/8 |z/8 G,,3/4-G,,/8z/8 G,,3/4-G,,/8 G,,z/8 C,,/E,,3/8 | G,,z/8 B,,/D,3/8 C,, G,, |z/8 G,,3/4-G,,/8z/8 G,,3/4-G,,/8z/8 G,,3/4-G,,/8z/8 G,,3/4-G,,/8 |z/8 G,,3/4-G,,/8z/8 G,,/G,,3/8 D,,z/8 F,,/A,,3/8 |z/8 G,,3/4-G,,/8z/8 G,,3/4-G,,/8z/8 G,,3/4-G,,/8z/8 G,,3/4-G,,/8 |z/8 G,,3/4-G,,/8z/8 G,,/G,,3/8 C,, G,, | A,,,z/8 C,,/E,,3/8z/8 A,,,3/4-A,,,/8z/8 A,,,3/4-A,,,/8 |z/8 G,,3/4-G,,/8z/8 G,,3/4-G,,/8z/8 D,,3/4-D,,/8z/8 D,,3/4-D,,/8 |z/8 G,,3/4-G,,/8z/8 G,,3/4-G,,/8z/8 G,,3/4-G,,/8z/8 G,,3/4-G,,/8 | G,,z/8 B,,/D,3/8 C,, G,, |z/8 G,,3/4-G,,/8z/8 G,,3/4-G,,/8z/8 G,,3/4-G,,/8z/8 G,,3/4-G,,/8 | D,, D,, D,,z/8 F,,/A,,3/8 | G,,z/8 D,,3/4-D,,/8z/8 G,,3/4-G,,/8z/8 D,,3/4-D,,/8 |z/8 G,,3/4-G,,/8z/8 D,,3/4-D,,/8z/8 G,,/-G,,/8G,,/4z/8 G,,/G,,3/8 | D,,z/8 F,,/A,,3/8z/8 G,,3/4-G,,/8z/8 G,,3/4-G,,/8 | G,,z/8 D,,3/4-D,,/8 G,, G,,/-G,,/8G,,3/8 | G,,z/8 D,,3/4-D,,/8z/8 G,,3/4-G,,/8z/8 D,,3/4-D,,/8 |z/8 G,,3/4-G,,/8z/8 G,,3/4-G,,/8 C,, G,, |z/8 G,,3/4-G,,/8z/8 G,,3/4-G,,/8z/8 G,,3/4-G,,/8z/8 G,,3/4-G,,/8 |z/8 G,,3/4-G,,/8z/8 G,,3/4-G,,/8z/8 D,,3/4-D,,/8z/8 D,,3/4-D,,/8 |z/8 D,,3/4-D,,/8z/8 D,,3/4-D,,/8z/8 G,,3/4-G,,/8z/8 G,,3/4-G,,/8 | G,,z/8 D,,3/4-D,,/8z/8 G,,3/4-G,,/8z/8 D,,3/4-D,,/8 |z/8 D,,3/4-D,,/8z/8 D,,3/4-D,,/8z/8 G,,3/4-G,,/8z/8 G,,3/4-G,,/8 | G,,z/8 D,3/4-D,/8z/8 G,,3/4-G,,/8z/8 D,3/4-D,/8 | G,,z/8 D,3/4-D,/8z/8 G,,3/4-G,,/8z/8 D,3/4-D,/8 |z/8 G,,3/4-G,,/8z/8 G,,3/4-G,,/8 C,, G,, |z/8 D,,3/4-D,,/8z/8 A,,3/4-A,,/8 D,,3/4-D,,/8D,,/8z/8 D,,3/8D,,/ | G,,z/8 D,,3/4-D,,/8 G,,3/4G,,/4 B,,/-B,,/8D,3/8 |z/8 G,,3/4-G,,/8z/8 G,,/G,,3/8 D,,z/8 F,,/A,,3/8 |z/8 G,,3/4-G,,/8z/8 G,,3/4-G,,/8 G,, E,, |z/8 A,,,3/4-A,,,/8z/8 A,,,/A,,,3/8z/8 G,,3/4-G,,/8z/8 G,,3/4-G,,/8 | D,,z/8 A,,3/4-A,,/8 D,, D,,/-D,,/8D,,3/8 |z/8 G,,3/4-G,,/8z/8 G,,3/4-G,,/8z/8 A,,,3/4-A,,,/8z/8 A,,,3/4-A,,,/8 |z/8 G,,3/4-G,,/8z/8 G,,3/4-G,,/8z/8 C,,3/4-C,,/8z/8 C,,3/4-C,,/8 |z/8 A,,,3/4-A,,,/8z/8 A,,,3/4-A,,,/8z/8 A,,,3/4-A,,,/8z/8 A,,,3/4-A,,,/8 | G,,z/8 B,,/D,3/8z/8 D,,3/4-D,,/8z/8 D,,3/4-D,,/8 |z/8 G,,3/4-G,,/8z/8 G,,3/4-G,,/8z/8 G,,3/4-G,,/8z/8 G,,3/4-G,,/8 |z/8 G,,3/4-G,,/8z/8 G,,3/4-G,,/8 C,, G,, |z/8 G,,3/4-G,,/8z/8 G,,3/4-G,,/8z/8 G,,3/4-G,,/8z/8 G,,/G,,3/8 |z/8 G,,3/4-G,,/8z/8 F,,/B,,,3/8 D,,z/8 F,,/A,,3/8 |z/8 G,,3/4-G,,/8z/8 G,,3/4-G,,/8z/8 G,,3/4-G,,/8z/8 G,,3/4-G,,/8 | G,,z/8 B,,/D,3/8 C,, G,, |z/8 A,,,3/4-A,,,/8z/8 A,,,3/4-A,,,/8 A,,,z/8 C,,/E,,3/8 |z/8 G,,3/4-G,,/8z/8 G,,/G,,3/8z/8 D,,3/4-D,,/8z/8 E,,/A,,3/8 |z/8 G,,3/4-G,,/8z/8 G,,3/4-G,,/8z/8 G,,3/4-G,,/8z/8 G,,/G,,3/8 |z/8 G,,3/4-G,,/8z/8 G,,3/4-G,,/8 C,, G,, |z/8 G,,3/4-G,,/8z/8 G,,3/4-G,,/8z/8 G,,3/4-G,,/8z/8 G,,/G,,3/8 | D,, D,,z/8 D,,3/4-D,,/8z/8 D,,3/4-D,,/8 | G,,z/8 D,,3/4-D,,/8 G,, D,, | G,, D,, G,,3/4G,,/4 B,,/-B,,/8D,3/8 |z/8 D,,3/4-D,,/8z/8 D,,3/4-D,,/8z/8 G,,3/4-G,,/8z/8 G,,3/4-G,,/8 | G,,z/8 D,3/4-D,/8z/8 G,,3/4-G,,/8z/8 D,3/4-D,/8 | G,,z/8 D,3/4-D,/8z/8 G,,3/4-G,,/8z/8 D,3/4-D,/8 |z/8 G,,3/4-G,,/8z/8 G,,3/4-G,,/8 C,, G,, |z/8 G,,3/4-G,,/8z/8 G,,3/4-G,,/8z/8 G,,3/4-G,,/8z/8 G,,3/4-G,,/8 | G,,z/8 F,,/A,,3/8z/8 D,,3/4-D,,/8z/8 D,,3/4-D,,/8 |z/8 D,,3/4-D,,/8z/8 D,,3/4-D,,/8z/8 G,,3/4-G,,/8z/8 G,,3/4-G,,/8 | G,,z/8 D,,3/4-D,,/8z/8 G,,3/4-G,,/8z/8 D,,3/4-D,,/8 |z/8 D,,3/4-D,,/8z/8 D,,3/4-D,,/8z/8 G,,3/4-G,,/8z/8 G,,3/4-G,,/8 | G,,z/8 D,3/4-D,/8z/8 G,,3/4-G,,/8z/8 D,3/4-D,/8 | G,,z/8 D,3/4-D,/8z/8 G,,3/4-G,,/8z/8 D,3/4-D,/8 |z/8 G,,3/4-G,,/8z/8 G,,3/4-G,,/8 C,, G,, | D,,z/8 A,,3/4-A,,/8 D,,3/4D,,/4 F,,/-F,,/8A,,3/8 | G,,z/8 D,3/4-D,/8z/8 G,,3/4-G,,/8z/8 D,3/4-D,/8|]
[V: P2]  z4 | z4 | ^C,z2z/ ^A,,/ | z4 |z3z/ ^A,,/ | z4 | z4 | z4 | ^C,z3 |z3z/ ^A,,/ | z4 | z4 | ^C,z3 | z4 | z4 |z2z3/4 A,,/4 A,,/A,,/ | ^C,z3 |z3z/ ^A,,/ | z4 |z3/4 C,/4z/ C,/z A,,/4A,,3/4 | ^C,z2z/ ^A,,/ | z4 | z4 | z4 | [^C,/^G,/][F,/4G,/4]G,/4 G,/[F,/4G,/4]G,/4 G,/4G,/4[F,/G,/] G,/[F,/G,/] | ^G,/[F,/G,/] G,/4G,/4F,/4G,/4 G,/[F,/G,/] G,/F,/ | ^G,/[F,/4G,/4]G,/4 G,/[F,/4G,/4]G,/4 G,/4G,/4[F,/G,/] G,/[F,/G,/] |z2z3/4 A,,/4 A,,/A,,/ | [^C,/^G,/][F,/4G,/4]G,/4 G,/[F,/4G,/4]G,/4 G,/4G,/4[F,/G,/] G,/[F,/G,/] | ^G,/[F,/G,/] G,/4G,/4F,/4G,/4 G,/[F,/G,/] G,/F,/ | ^G,/[F,/4G,/4]G,/4 G,/[F,/4G,/4]G,/4 G,/4G,/4[F,/G,/] G,/[F,/G,/] |z2z3/4 A,,/4 A,,/A,,/ | [^C,/^G,/][F,/4G,/4]G,/4 G,/[F,/4G,/4]G,/4 G,/4G,/4[F,/G,/] G,/[F,/G,/] | ^G,/[F,/G,/] G,/4G,/4F,/4G,/4 G,/[F,/G,/] G,/F,/ | ^G,/[F,/4G,/4]G,/4 G,/[F,/4G,/4]G,/4 G,/4G,/4[F,/G,/] G,/[F,/G,/] | ^A,, C,/4C,3/4 =A,,/4A,,3/4z | [^C,/^G,/][F,/4G,/4]G,/4 G,/[F,/4G,/4]G,/4 G,/4G,/4[F,/G,/] G,/[F,/G,/] | ^G,/[F,/G,/] G,/4G,/4F,/4G,/4 G,/[F,/G,/] G,/F,/ | ^G,/[F,/4G,/4]G,/4 G,/[F,/4G,/4]G,/4 G,/4G,/4[F,/G,/] G,/[F,/G,/] |z2z3/4 A,,/4z | [^C,/^G,/][F,/4G,/4]G,/4 G,/[F,/4G,/4]G,/4 G,/4G,/4[F,/G,/] G,/[F,/G,/] | ^G,/[F,/G,/] G,/4G,/4F,/4G,/4 G,/[F,/G,/] G,/F,/ | ^G,/[F,/4G,/4]G,/4 G,/[F,/4G,/4]G,/4 G,/4G,/4[F,/G,/] G,/[F,/G,/] | z4 | [^C,/^G,/][F,/4G,/4]G,/4 G,/[F,/4G,/4]G,/4 G,/4G,/4[F,/G,/] G,/[F,/G,/] | ^G,/[F,/G,/] G,/4G,/4F,/4G,/4 G,/[F,/G,/] G,/F,/ | ^G,/[F,/4G,/4]G,/4 G,/[F,/4G,/4]G,/4 G,/4G,/4[F,/G,/] G,/[F,/G,/] |z2z3/4 A,,/4 A,,/A,,/ | [^C,/^G,/][F,/4G,/4]G,/4 G,/[F,/4G,/4]G,/4 G,/4G,/4[F,/G,/] G,/[F,/G,/] | ^G,/[F,/G,/] G,/4G,/4F,/4G,/4 G,/[F,/G,/] G,/F,/ | ^G,/[F,/4G,/4]G,/4 G,/[F,/4G,/4]G,/4 G,/4G,/4[F,/G,/] G,/[F,/G,/] |z3/4 C,/4z/ C,/z A,,/4A,,3/4 | [^C,/^G,/][F,/4G,/4]G,/4 G,/[F,/4G,/4]G,/4 G,/4G,/4[F,/G,/] G,/[F,/G,/] | ^G,/[F,/G,/] G,/4G,/4F,/4G,/4 G,/[F,/G,/] G,/F,/ | ^G,/[F,/4G,/4]G,/4 G,/[F,/4G,/4]G,/4 G,/4G,/4[F,/G,/] G,/[F,/G,/] | z4 | [^C,/^G,/][F,/4G,/4]G,/4 G,/[F,/4G,/4]G,/4 G,/4G,/4[F,/G,/] G,/[F,/G,/] | ^G,/[F,/G,/] G,/4G,/4F,/4G,/4 G,/[F,/G,/] G,/F,/ | ^G,/[F,/4G,/4]G,/4 G,/[F,/4G,/4]G,/4 G,/4G,/4[F,/G,/] G,/[F,/G,/] | z4 | [^C,/^G,/][F,/4G,/4]G,/4 G,/[F,/4G,/4]G,/4 G,/4G,/4[F,/G,/] G,/[F,/G,/] | ^G,/[F,/G,/] G,/4G,/4F,/4G,/4 G,/[F,/G,/] G,/F,/ | ^G,/[F,/4G,/4]G,/4 G,/[F,/4G,/4]G,/4 G,/4G,/4[F,/G,/] G,/[F,/G,/] |z3/4 C,/4z/ C,/z A,,/4A,,3/4 | [^C,/^G,/][F,/4G,/4]G,/4 G,/[F,/4G,/4]G,/4 G,/4G,/4[F,/G,/] G,/[F,/G,/] | ^G,/[F,/G,/] G,/4G,/4F,/4G,/4 G,/[F,/G,/] G,/F,/ | ^G,/[F,/4G,/4]G,/4 G,/[F,/4G,/4]G,/4 G,/4G,/4[F,/G,/] G,/[F,/G,/] | z4 | [^C,/^G,/][F,/4G,/4]G,/4 G,/[F,/4G,/4]G,/4 G,/4G,/4[F,/G,/] G,/[F,/G,/] | ^G,/[F,/G,/] G,/4G,/4F,/4G,/4 G,/[F,/G,/] G,/F,/ | ^G,/[F,/4G,/4]G,/4 G,/[F,/4G,/4]G,/4 G,/4G,/4[F,/G,/] G,/[F,/G,/] |z3/4 C,/4z/ C,/z A,,/4A,,3/4 | [^C,/^G,/][F,/4G,/4]G,/4 G,/[F,/4G,/4]G,/4 G,/4G,/4[F,/G,/] G,/[F,/G,/] | ^G,/[F,/G,/] G,/4G,/4F,/4G,/4 G,/[F,/G,/] G,/F,/ | ^G,/[F,/4G,/4]G,/4 G,/[F,/4G,/4]G,/4 G,/4G,/4[F,/G,/] G,/[F,/G,/] | z4 | [^C,/^G,/][F,/4G,/4]G,/4 G,/[F,/4G,/4]G,/4 G,/4G,/4[F,/G,/] G,/[F,/G,/] | ^G,/[F,/G,/] G,/4G,/4F,/4G,/4 G,/[F,/G,/] G,/F,/ | ^G,/[F,/4G,/4]G,/4 G,/[F,/4G,/4]G,/4 G,/4G,/4[F,/G,/] G,/[F,/G,/] |z2z3/4 A,,/4z | ^C,z2z/ ^A,,/ | z4 | z4 | z4 | ^C,z3 | z4 | z4 |z2z3/4 A,,/4z | ^C,z2z/ ^A,,/ | z4 | z4 |z2z3/4 A,,/4 A,,/A,,/ | ^C,z3 |z3z/ ^A,,/ | z4 | z4 | [^C,/^G,/][F,/4G,/4]G,/4 G,/[F,/4G,/4]G,/4 G,/4G,/4[F,/G,/] G,/[F,/G,/] | ^G,/[F,/G,/] G,/4G,/4F,/4G,/4 G,/[F,/G,/] G,/F,/ | ^G,/[F,/4G,/4]G,/4 G,/[F,/4G,/4]G,/4 G,/4G,/4[F,/G,/] G,/[F,/G,/] | z4 | [^C,/^G,/][F,/4G,/4]G,/4 G,/[F,/4G,/4]G,/4 G,/4G,/4[F,/G,/] G,/[F,/G,/] | ^G,/[F,/G,/] G,/4G,/4F,/4G,/4 G,/[F,/G,/] G,/F,/ | ^G,/[F,/4G,/4]G,/4 G,/[F,/4G,/4]G,/4 G,/4G,/4[F,/G,/] G,/[F,/G,/] | z4 | [^C,/^G,/][F,/4G,/4]G,/4 G,/[F,/4G,/4]G,/4 G,/4G,/4[F,/G,/] G,/[F,/G,/] | ^G,/[F,/G,/] G,/4G,/4F,/4G,/4 G,/[F,/G,/] G,/F,/ | ^G,/[F,/4G,/4]G,/4 G,/[F,/4G,/4]G,/4 G,/4G,/4[F,/G,/] G,/[F,/G,/] | z4 | [^C,/^G,/][F,/4G,/4]G,/4 G,/[F,/4G,/4]G,/4 G,/4G,/4[F,/G,/] G,/[F,/G,/] | ^G,/[F,/G,/] G,/4G,/4F,/4G,/4 G,/[F,/G,/] G,/F,/ | ^G,/[F,/4G,/4]G,/4 G,/[F,/4G,/4]G,/4 G,/4G,/4[F,/G,/] G,/[F,/G,/] |z2z3/4 A,,/4z | [^C,/^G,/][F,/4G,/4]G,/4 G,/[F,/4G,/4]G,/4 G,/4G,/4[F,/G,/] G,/[F,/G,/] | ^G,/[F,/G,/] G,/4G,/4F,/4G,/4 G,/[F,/G,/] G,/F,/ | ^G,/[F,/4G,/4]G,/4 G,/[F,/4G,/4]G,/4 G,/4G,/4[F,/G,/] G,/[F,/G,/] |z2z3/4 A,,/4 A,,/A,,/ | ^C,z3 |z3z/ ^A,,/ | z4 | z4 | ^C,z3 | z4 |z3z/ ^A,,/ |z2z3/4 A,,/4z | ^C,z3 | z4 |z3z/ ^A,,/ |z2z3/4 A,,/4 A,,/A,,/ | ^C,z2z/ ^A,,/ | z4 | z4 |z2z3/4 A,,/4 A,,/A,,/|]
[V: P3]  ^C,,z C,,z | ^C,, C,, C,, C,, | [B,,,/F,,/][D,,/F,,/] [B,,,/F,,/][D,,/4F,,/4]F,,/4 [B,,,/F,,/][D,,/F,,/] [B,,,/F,,/]D,,/4F,,/4 | [B,,,/F,,/][D,,/F,,/] [B,,,/F,,/][D,,/4F,,/4]F,,/4 [B,,,/F,,/][D,,/F,,/] [B,,,/F,,/][D,,/4F,,/4]F,,/4 | [B,,,/F,,/][D,,/F,,/] [B,,,/F,,/][D,,/4F,,/4]F,,/4 [B,,,/F,,/][D,,/F,,/] [B,,,/F,,/]D,,/4F,,/4 | [B,,,/F,,/][D,,/F,,/] [B,,,/F,,/][D,,/4F,,/4]F,,/4 [B,,,/F,,/][D,,/F,,/] [B,,,/F,,/][D,,/4F,,/4]F,,/4 | [B,,,/F,,/][D,,/F,,/] [B,,,/F,,/][D,,/4F,,/4]F,,/4 [B,,,/F,,/][D,,/F,,/] [B,,,/F,,/][D,,/4F,,/4]F,,/4 | [B,,,/D,,/][D,,/F,,/] [B,,,/4D,,/4]D,,/4F,,/4D,,/4 [B,,,/D,,/][D,,/F,,/] [B,,,/D,,/=F,,/]^F,,/4D,,/4 | [B,,,/F,,/][D,,/F,,/] [B,,,/F,,/][D,,/4F,,/4]F,,/4 [B,,,/F,,/][D,,/F,,/] [B,,,/F,,/][D,,/4F,,/4]F,,/4 | [B,,,/F,,/][D,,/F,,/] [B,,,/F,,/][D,,/4F,,/4]F,,/4 [B,,,/F,,/][D,,/F,,/] [B,,,/F,,/]D,,/4F,,/4 | [B,,,/F,,/][D,,/F,,/] [B,,,/F,,/][D,,/4F,,/4]F,,/4 [B,,,/F,,/][D,,/F,,/] [B,,,/F,,/][D,,/4F,,/4]F,,/4 | [B,,,/4D,,/4]D,,/4[D,,/4F,,/4]D,,/4 [B,,,/4D,,/4]D,,/4[D,,/4F,,/4]D,,/4 [B,,,/D,,/][D,,/F,,/] [B,,,/D,,/]F,,/4D,,/4 | [B,,,/F,,/][D,,/F,,/] [B,,,/F,,/][D,,/4F,,/4]F,,/4 [B,,,/F,,/][D,,/F,,/] [B,,,/F,,/][D,,/4F,,/4]F,,/4 | [B,,,/F,,/][D,,/F,,/] [B,,,/F,,/][D,,/4F,,/4]F,,/4 [B,,,/F,,/][D,,/F,,/] [B,,,/F,,/][D,,/4F,,/4]F,,/4 | [B,,,/F,,/][D,,/F,,/] [B,,,/F,,/][D,,/4F,,/4]F,,/4 [B,,,/F,,/][D,,/F,,/] [B,,,/F,,/][D,,/4F,,/4]F,,/4 | [B,,,/D,,/][D,,/4F,,/4]D,,/4 D,,/[D,,/F,,/] B,,,/4D,,/4[D,,/F,,/] B,,,/F,,/ | [B,,,/F,,/][D,,/F,,/] [B,,,/F,,/][D,,/4F,,/4]F,,/4 [B,,,/F,,/][D,,/F,,/] [B,,,/F,,/][D,,/4F,,/4]F,,/4 | [B,,,/F,,/][D,,/F,,/] [B,,,/F,,/][D,,/4F,,/4]F,,/4 [B,,,/F,,/][D,,/F,,/] [B,,,/F,,/]D,,/4F,,/4 | [B,,,/F,,/][D,,/F,,/] [B,,,/F,,/][D,,/4F,,/4]F,,/4 [B,,,/F,,/][D,,/F,,/] [B,,,/F,,/][D,,/4F,,/4]F,,/4 | [B,,,/4D,,/4]D,,/4D,,/ [B,,,/4D,,/4]D,,/D,,/4 [B,,,/4D,,/4]D,,/4D,,/4D,,/4 B,,,/=F,,/4F,,/4 | [B,,,/F,,/][D,,/F,,/] [B,,,/F,,/][D,,/4F,,/4]F,,/4 [B,,,/F,,/][D,,/F,,/] [B,,,/F,,/]D,,/4F,,/4 | [B,,,/F,,/][D,,/F,,/] [B,,,/F,,/][D,,/4F,,/4]F,,/4 [B,,,/F,,/][D,,/F,,/] [B,,,/F,,/][D,,/4F,,/4]F,,/4 | [B,,,/F,,/][D,,/F,,/] [B,,,/F,,/][D,,/4F,,/4]F,,/4 [B,,,/F,,/][D,,/F,,/] [B,,,/F,,/][D,,/4F,,/4]F,,/4 | [B,,,/4D,,/4]D,,/4[D,,/4F,,/4]D,,/4 [B,,,/4D,,/4]D,,/4[D,,/4F,,/4]D,,/4 [B,,,/D,,/][D,,/F,,/] [B,,,/D,,/]F,,/4D,,/4 | B,,,/F,,/ B,,,/F,,/ B,,,/F,,/ B,,,/F,,/ | B,,,/F,,/ B,,,/F,,/ B,,,/F,,/ B,,,/F,,/ | B,,,/F,,/ B,,,/F,,/ B,,,/F,,/ B,,,/F,,/ | [B,,,/D,,/][D,,/4F,,/4]D,,/4 D,,/[D,,/F,,/] B,,,/4D,,/4[D,,/F,,/] B,,,/F,,/ | B,,,/F,,/ B,,,/F,,/ B,,,/F,,/ B,,,/F,,/ | B,,,/F,,/ B,,,/F,,/ B,,,/F,,/ B,,,/F,,/ | B,,,/F,,/ B,,,/F,,/ B,,,/F,,/ B,,,/F,,/ | [B,,,/D,,/][D,,/4F,,/4]D,,/4 D,,/[D,,/F,,/] B,,,/4D,,/4[D,,/F,,/] B,,,/F,,/ | B,,,/F,,/ B,,,/F,,/ B,,,/F,,/ B,,,/F,,/ | B,,,/F,,/ B,,,/F,,/ B,,,/F,,/ B,,,/F,,/ | B,,,/F,,/ B,,,/F,,/ B,,,/F,,/ B,,,/F,,/ | B,,,/D,,/4D,,/4z/ [D,,/4F,,/4]D,,/4z/ [D,,/4F,,/4][B,,,/4D,,/4] D,,/[D,,/F,,/] | B,,,/F,,/ B,,,/F,,/ B,,,/F,,/ B,,,/F,,/ | B,,,/F,,/ B,,,/F,,/ B,,,/F,,/ B,,,/F,,/ | B,,,/F,,/ B,,,/F,,/ B,,,/F,,/ B,,,/F,,/ | [B,,,/F,,/][D,,/4F,,/4]F,,/4 [B,,,/F,,/][D,,/4F,,/4]D,,/4 D,,/4D,,/4D,,/ D,,/4D,,/4=F,,/4D,,/4 | B,,,/F,,/ B,,,/F,,/ B,,,/F,,/ B,,,/F,,/ | B,,,/F,,/ B,,,/F,,/ B,,,/F,,/ B,,,/F,,/ | B,,,/F,,/ B,,,/F,,/ B,,,/F,,/ B,,,/F,,/ | [B,,,/4D,,/4]D,,/4[D,,/4F,,/4]D,,/4 [B,,,/4D,,/4]D,,/4[D,,/4F,,/4]D,,/4 [B,,,/D,,/][D,,/F,,/] [B,,,/D,,/]F,,/4D,,/4 | B,,,/F,,/ B,,,/F,,/ B,,,/F,,/ B,,,/F,,/ | B,,,/F,,/ B,,,/F,,/ B,,,/F,,/ B,,,/F,,/ | B,,,/F,,/ B,,,/F,,/ B,,,/F,,/ B,,,/F,,/ | [B,,,/D,,/][D,,/4F,,/4]D,,/4 D,,/[D,,/F,,/] B,,,/4D,,/4[D,,/F,,/] B,,,/F,,/ | B,,,/F,,/ B,,,/F,,/ B,,,/F,,/ B,,,/F,,/ | B,,,/F,,/ B,,,/F,,/ B,,,/F,,/ B,,,/F,,/ | B,,,/F,,/ B,,,/F,,/ B,,,/F,,/ B,,,/F,,/ | [B,,,/4D,,/4]D,,/4D,,/ [B,,,/4D,,/4]D,,/D,,/4 [B,,,/4D,,/4]D,,/4D,,/4D,,/4 B,,,/=F,,/4F,,/4 | B,,,/F,,/ B,,,/F,,/ B,,,/F,,/ B,,,/F,,/ | B,,,/F,,/ B,,,/F,,/ B,,,/F,,/ B,,,/F,,/ | B,,,/F,,/ B,,,/F,,/ B,,,/F,,/ B,,,/F,,/ | [B,,,/4D,,/4]D,,/4[D,,/4F,,/4]D,,/4 [B,,,/4D,,/4]D,,/4[D,,/4F,,/4]D,,/4 [B,,,/D,,/][D,,/F,,/] [B,,,/D,,/]F,,/4D,,/4 | B,,,/F,,/ B,,,/F,,/ B,,,/F,,/ B,,,/F,,/ | B,,,/F,,/ B,,,/F,,/ B,,,/F,,/ B,,,/F,,/ | B,,,/F,,/ B,,,/F,,/ B,,,/F,,/ B,,,/F,,/ | [B,,,/D,,/][D,,/F,,/] [B,,,/4D,,/4]D,,/4F,,/4D,,/4 [B,,,/D,,/][D,,/F,,/] [B,,,/D,,/=F,,/]^F,,/4D,,/4 | B,,,/F,,/ B,,,/F,,/ B,,,/F,,/ B,,,/F,,/ | B,,,/F,,/ B,,,/F,,/ B,,,/F,,/ B,,,/F,,/ | B,,,/F,,/ B,,,/F,,/ B,,,/F,,/ B,,,/F,,/ | [B,,,/4D,,/4]D,,/4D,,/ [B,,,/4D,,/4]D,,/D,,/4 [B,,,/4D,,/4]D,,/4D,,/4D,,/4 B,,,/=F,,/4F,,/4 | B,,,/F,,/ B,,,/F,,/ B,,,/F,,/ B,,,/F,,/ | B,,,/F,,/ B,,,/F,,/ B,,,/F,,/ B,,,/F,,/ | B,,,/F,,/ B,,,/F,,/ B,,,/F,,/ B,,,/F,,/ | [B,,,/4D,,/4]D,,/4[D,,/4F,,/4]D,,/4 [B,,,/4D,,/4]D,,/4[D,,/4F,,/4]D,,/4 [B,,,/D,,/][D,,/F,,/] [B,,,/D,,/]F,,/4D,,/4 | B,,,/F,,/ B,,,/F,,/ B,,,/F,,/ B,,,/F,,/ | B,,,/F,,/ B,,,/F,,/ B,,,/F,,/ B,,,/F,,/ | B,,,/F,,/ B,,,/F,,/ B,,,/F,,/ B,,,/F,,/ | [B,,,/4D,,/4]D,,/4D,,/ [B,,,/4D,,/4]D,,/D,,/4 [B,,,/4D,,/4]D,,/4D,,/4D,,/4 B,,,/=F,,/4F,,/4 | B,,,/F,,/ B,,,/F,,/ B,,,/F,,/ B,,,/F,,/ | B,,,/F,,/ B,,,/F,,/ B,,,/F,,/ B,,,/F,,/ | B,,,/F,,/ B,,,/F,,/ B,,,/F,,/ B,,,/F,,/ | [B,,,/D,,/][D,,/F,,/] [B,,,/4D,,/4]D,,/4F,,/4D,,/4 [B,,,/D,,/][D,,/F,,/] [B,,,/D,,/=F,,/]^F,,/4D,,/4 | B,,,/F,,/ B,,,/F,,/ B,,,/F,,/ B,,,/F,,/ | B,,,/F,,/ B,,,/F,,/ B,,,/F,,/ B,,,/F,,/ | B,,,/F,,/ B,,,/F,,/ B,,,/F,,/ B,,,/F,,/ | [B,,,/F,,/][D,,/4F,,/4]F,,/4 [B,,,/F,,/][D,,/4F,,/4]D,,/4 D,,/4D,,/4D,,/ D,,/4D,,/4=F,,/4D,,/4 | [B,,,/F,,/][D,,/F,,/] [B,,,/F,,/][D,,/4F,,/4]F,,/4 [B,,,/F,,/][D,,/F,,/] [B,,,/F,,/]D,,/4F,,/4 | [B,,,/F,,/][D,,/F,,/] [B,,,/F,,/][D,,/4F,,/4]F,,/4 [B,,,/F,,/][D,,/F,,/] [B,,,/F,,/][D,,/4F,,/4]F,,/4 | [B,,,/F,,/][D,,/F,,/] [B,,,/F,,/][D,,/4F,,/4]F,,/4 [B,,,/F,,/][D,,/F,,/] [B,,,/F,,/][D,,/4F,,/4]F,,/4 | [B,,,/D,,/][D,,/F,,/] [B,,,/4D,,/4]D,,/4F,,/4D,,/4 [B,,,/D,,/][D,,/F,,/] [B,,,/D,,/=F,,/]^F,,/4D,,/4 | [B,,,/F,,/][D,,/F,,/] [B,,,/F,,/][D,,/4F,,/4]F,,/4 [B,,,/F,,/][D,,/F,,/] [B,,,/F,,/][D,,/4F,,/4]F,,/4 | [B,,,/F,,/][D,,/F,,/] [B,,,/F,,/][D,,/4F,,/4]F,,/4 [B,,,/F,,/][D,,/F,,/] [B,,,/F,,/][D,,/4F,,/4]F,,/4 | [B,,,/F,,/][D,,/F,,/] [B,,,/F,,/][D,,/4F,,/4]F,,/4 [B,,,/F,,/][D,,/F,,/] [B,,,/F,,/][D,,/4F,,/4]F,,/4 | [B,,,/F,,/][D,,/4F,,/4]F,,/4 [B,,,/F,,/][D,,/4F,,/4]D,,/4 D,,/4D,,/4D,,/ D,,/4D,,/4=F,,/4D,,/4 | [B,,,/F,,/][D,,/F,,/] [B,,,/F,,/][D,,/4F,,/4]F,,/4 [B,,,/F,,/][D,,/F,,/] [B,,,/F,,/]D,,/4F,,/4 | [B,,,/F,,/][D,,/F,,/] [B,,,/F,,/][D,,/4F,,/4]F,,/4 [B,,,/F,,/][D,,/F,,/] [B,,,/F,,/][D,,/4F,,/4]F,,/4 | [B,,,/F,,/][D,,/F,,/] [B,,,/F,,/][D,,/4F,,/4]F,,/4 [B,,,/F,,/][D,,/F,,/] [B,,,/F,,/][D,,/4F,,/4]F,,/4 | [B,,,/D,,/][D,,/4F,,/4]D,,/4 D,,/[D,,/F,,/] B,,,/4D,,/4[D,,/F,,/] B,,,/F,,/ | [B,,,/F,,/][D,,/F,,/] [B,,,/F,,/][D,,/4F,,/4]F,,/4 [B,,,/F,,/][D,,/F,,/] [B,,,/F,,/][D,,/4F,,/4]F,,/4 | [B,,,/F,,/][D,,/F,,/] [B,,,/F,,/][D,,/4F,,/4]F,,/4 [B,,,/F,,/][D,,/F,,/] [B,,,/F,,/]D,,/4F,,/4 | [B,,,/F,,/][D,,/F,,/] [B,,,/F,,/][D,,/4F,,/4]F,,/4 [B,,,/F,,/][D,,/F,,/] [B,,,/F,,/][D,,/4F,,/4]F,,/4 | [B,,,/4D,,/4]D,,/4[D,,/4F,,/4]D,,/4 [B,,,/4D,,/4]D,,/4[D,,/4F,,/4]D,,/4 [B,,,/D,,/][D,,/F,,/] [B,,,/D,,/]F,,/4D,,/4 | B,,,/F,,/ B,,,/F,,/ B,,,/F,,/ B,,,/F,,/ | B,,,/F,,/ B,,,/F,,/ B,,,/F,,/ B,,,/F,,/ | B,,,/F,,/ B,,,/F,,/ B,,,/F,,/ B,,,/F,,/ | [B,,,/4D,,/4]D,,/4[D,,/4F,,/4]D,,/4 [B,,,/4D,,/4]D,,/4[D,,/4F,,/4]D,,/4 [B,,,/D,,/][D,,/F,,/] [B,,,/D,,/]F,,/4D,,/4 | B,,,/F,,/ B,,,/F,,/ B,,,/F,,/ B,,,/F,,/ | B,,,/F,,/ B,,,/F,,/ B,,,/F,,/ B,,,/F,,/ | B,,,/F,,/ B,,,/F,,/ B,,,/F,,/ B,,,/F,,/ | [B,,,/D,,/][D,,/F,,/] [B,,,/4D,,/4]D,,/4F,,/4D,,/4 [B,,,/D,,/][D,,/F,,/] [B,,,/D,,/=F,,/]^F,,/4D,,/4 | B,,,/F,,/ B,,,/F,,/ B,,,/F,,/ B,,,/F,,/ | B,,,/F,,/ B,,,/F,,/ B,,,/F,,/ B,,,/F,,/ | B,,,/F,,/ B,,,/F,,/ B,,,/F,,/ B,,,/F,,/ | [B,,,/D,,/][D,,/F,,/] [B,,,/4D,,/4]D,,/4F,,/4D,,/4 [B,,,/D,,/][D,,/F,,/] [B,,,/D,,/=F,,/]^F,,/4D,,/4 | B,,,/F,,/ B,,,/F,,/ B,,,/F,,/ B,,,/F,,/ | B,,,/F,,/ B,,,/F,,/ B,,,/F,,/ B,,,/F,,/ | B,,,/F,,/ B,,,/F,,/ B,,,/F,,/ B,,,/F,,/ | [B,,,/F,,/][D,,/4F,,/4]F,,/4 [B,,,/F,,/][D,,/4F,,/4]D,,/4 D,,/4D,,/4D,,/ D,,/4D,,/4=F,,/4D,,/4 | B,,,/F,,/ B,,,/F,,/ B,,,/F,,/ B,,,/F,,/ | B,,,/F,,/ B,,,/F,,/ B,,,/F,,/ B,,,/F,,/ | B,,,/F,,/ B,,,/F,,/ B,,,/F,,/ B,,,/F,,/ | [B,,,/D,,/][D,,/4F,,/4]D,,/4 D,,/[D,,/F,,/] B,,,/4D,,/4[D,,/F,,/] B,,,/F,,/ | [B,,,/F,,/][D,,/F,,/] [B,,,/F,,/][D,,/4F,,/4]F,,/4 [B,,,/F,,/][D,,/F,,/] [B,,,/F,,/][D,,/4F,,/4]F,,/4 | [B,,,/F,,/][D,,/F,,/] [B,,,/F,,/][D,,/4F,,/4]F,,/4 [B,,,/F,,/][D,,/F,,/] [B,,,/F,,/]D,,/4F,,/4 | [B,,,/F,,/][D,,/F,,/] [B,,,/F,,/][D,,/4F,,/4]F,,/4 [B,,,/F,,/][D,,/F,,/] [B,,,/F,,/][D,,/4F,,/4]F,,/4 | [B,,,/D,,/][D,,/F,,/] [B,,,/4D,,/4]D,,/4F,,/4D,,/4 [B,,,/D,,/][D,,/F,,/] [B,,,/D,,/=F,,/]^F,,/4D,,/4 | [B,,,/F,,/][D,,/F,,/] [B,,,/F,,/][D,,/4F,,/4]F,,/4 [B,,,/F,,/][D,,/F,,/] [B,,,/F,,/][D,,/4F,,/4]F,,/4 | [B,,,/F,,/][D,,/F,,/] [B,,,/F,,/][D,,/4F,,/4]F,,/4 [B,,,/F,,/][D,,/F,,/] [B,,,/F,,/][D,,/4F,,/4]D,,/4 | [B,,,/F,,/][D,,/F,,/] [B,,,/F,,/][D,,/4F,,/4]F,,/4 [B,,,/F,,/][D,,/F,,/] [B,,,/F,,/]D,,/4F,,/4 | [B,,,/F,,/][D,,/4F,,/4]F,,/4 [B,,,/F,,/][D,,/4F,,/4]D,,/4 D,,/4D,,/4D,,/ D,,/4D,,/4=F,,/4D,,/4 | [B,,,/F,,/][D,,/F,,/] [B,,,/F,,/][D,,/4F,,/4]F,,/4 [B,,,/F,,/][D,,/F,,/] [B,,,/F,,/][D,,/4F,,/4]F,,/4 | [B,,,/F,,/][D,,/F,,/] [B,,,/F,,/][D,,/4F,,/4]F,,/4 [B,,,/F,,/][D,,/F,,/] [B,,,/F,,/][D,,/4F,,/4]F,,/4 | [B,,,/F,,/][D,,/F,,/] [B,,,/F,,/][D,,/4F,,/4]F,,/4 [B,,,/F,,/][D,,/F,,/] [B,,,/F,,/]D,,/4F,,/4 | [B,,,/D,,/][D,,/4F,,/4]D,,/4 D,,/[D,,/F,,/] B,,,/4D,,/4[D,,/F,,/] B,,,/F,,/ | [B,,,/F,,/][D,,/F,,/] [B,,,/F,,/][D,,/4F,,/4]F,,/4 [B,,,/F,,/][D,,/F,,/] [B,,,/F,,/]D,,/4F,,/4 | [B,,,/F,,/][D,,/F,,/] [B,,,/F,,/][D,,/4F,,/4]F,,/4 [B,,,/F,,/][D,,/F,,/] [B,,,/F,,/][D,,/4F,,/4]F,,/4 | [B,,,/F,,/][D,,/F,,/] [B,,,/F,,/][D,,/4F,,/4]F,,/4 [B,,,/F,,/][D,,/F,,/] [B,,,/F,,/][D,,/4F,,/4]F,,/4 | [B,,,/D,,/][D,,/4F,,/4]D,,/4 D,,/[D,,/F,,/] B,,,/4D,,/4[D,,/F,,/] B,,,/F,,/|]
[V: P4]  z4 | z4 |z/ [A/d/f/]z/ [A/d/f/]z/ [A/d/f/]z/ [A/d/f/] |z/ [A/c/e/]z/ [A/c/e/]z/ [A/c/e/]z/ [A/c/e/] |z/ [A/c/e/]z/ [A/c/e/]z/8 [G3/4-c3/4-e3/4-][G/8c/8e/8] [Gce] |z/ [G/B/d/]z/ [G/B/d/] [GBd] [GBd] |z/z/8 [A3/8d3/8f3/8]z/ [A/d/f/]z/z/8 [A3/8d3/8f3/8]z/ [A/d/f/] |z/ [A/d/f/]z/4 [A3/4d3/4f3/4] [Adf]z/ [A/d/f/] |z/z/8 [G3/8B3/8d3/8]z/ [G/B/d/]z/z/8 [G3/8B3/8d3/8]z/ [G/B/d/] |z/ [G/B/d/]z/4 [G3/4B3/4d3/4] [GBd]z/ [G/B/d/] |z/ [c/d/f/a/]z/ [c/d/f/a/]z/ [G/B/d/]z/ [G/B/d/] |z/ [G/B/d/]z/ [G/B/d/] [GBd] [GBd] |z/ [G/B/d/]z/ [G/B/d/]z/ [G/B/d/]z/ [G/B/d/] |z/ [G/B/d/]z/ [G/B/d/]z/8 [G3/4-c3/4-e3/4-][G/8c/8e/8]z/8 [G3/4-B3/4-d3/4-][G/8B/8d/8] |z/ [c/d/f/a/]z/ [c/d/f/a/]z/ [G/B/d/]z/ [G/B/d/] |z/ [A/d/f/]z/ [A/d/f/]z/ [A/d/f/]z/ [A/d/f/] |z/ [c/d/f/a/]z/ [c/d/f/a/]z/8 [G3/4-B3/4-d3/4-][G/8B/8d/8] [GBd] |z/ [G/B/d/]z/ [G/B/d/] [GBd] [GBd] |z/ [c/d/f/a/]z/ [c/d/f/a/]z/ [G/B/d/]z/ [G/B/d/] |z/ [G/B/d/]z/4 [G3/4B3/4d3/4] [G2B2d2] |z/ [G/B/d/]z/ [G/B/d/]z/ [G/B/d/]z/ [G/B/d/] |z/8 [G3/4-B3/4-d3/4-][G/8B/8d/8] [GBd]z/8 [G3/4-c3/4-e3/4-][G/8c/8e/8]z/8 [G3/4-B3/4-d3/4-][G/8B/8d/8] |z/ [A/c/d/f/]z/ [A/c/d/f/]z/ [A/c/d/f/]z/ [A/c/d/f/] |z/ [G/B/d/]z/ [G/B/d/] [GBd] [GBd] |z/ [G/B/d/]z/ [G/B/d/]z/8 [c3/4-d3/4-f3/4-a3/4-][c/8d/8f/8a/8] [cdfa] |z/ [G/B/d/]z/ [G/B/d/]z/8 [A3/4-c3/4-e3/4-][A/8c/8e/8]z/8 [B3/4-d3/4-e3/4-g3/4-][B/8d/8e/8g/8] |z/ [c/e/g/a/]z/ [c/e/g/a/]z/ [G/B/d/]z/ [G/B/d/] |z/ [A/d/f/]z/ [A/d/f/] [Adf] [Adf] |z/ [G/B/d/]z/ [G/B/d/]z/ [c/e/g/a/]z/ [c/e/g/a/] |z/ [G/B/d/]z/ [G/B/d/]z/ [G/c/e/]z/ [G/c/e/] |z/8 [A3/4-c3/4-e3/4-][A/8c/8e/8] [Ace]z/8 [c3/4-e3/4-g3/4-a3/4-][c/8e/8g/8a/8] [cega] |z/ [G/B/d/]z/ [G/B/d/]z/ [A/d/f/]z/ [A/d/f/] |z/8 [G3/4-B3/4-d3/4-][G/8B/8d/8] [GBd]z/ [A/c/e/]z/ [A/c/e/] |z/8 [G3/4-B3/4-d3/4-][G/8B/8d/8] [GBd]z/8 [G3/4-c3/4-e3/4-][G/8c/8e/8]z/8 [G3/4-B3/4-d3/4-][G/8B/8d/8] |z/8 [A3/4-c3/4-e3/4-][A/8c/8e/8] [Ace]z/ [G/B/d/]z/ [G/B/d/] |z/8 [G3/4-B3/4-d3/4-][G/8B/8d/8] [GBd]z/8 [A3/4-d3/4-f3/4-][A/8d/8f/8] [Adf] |z/8 [G3/4-B3/4-d3/4-][G/8B/8d/8] [GBd]z/8 [A3/4-c3/4-e3/4-][A/8c/8e/8] [Ace] |z/ [G/B/d/]z/ [G/B/d/]z/8 [G3/4-c3/4-e3/4-][G/8c/8e/8]z/8 [G3/4-B3/4-d3/4-][G/8B/8d/8] |z/ [A/c/e/]z/ [A/c/e/]z/ [c/e/g/a/]z/ [c/e/g/a/] |z/ [G/B/d/]z/ [G/B/d/]z/8 [F3/4-A3/4-d3/4-][F/8A/8d/8] [FAd] |z/ [G/B/d/]z/ [G/B/d/]z/ [A/c/e/]z/ [A/c/e/] |z/ [G/B/d/]z/ [G/B/d/]z/8 [G3/4-c3/4-e3/4-][G/8c/8e/8]z/8 [G3/4-B3/4-d3/4-][G/8B/8d/8] |z/8 [A3/4-c3/4-e3/4-][A/8c/8e/8] [Ace]z/ [G/B/d/]z/ [G/B/d/] |z/8 [A3/4-d3/4-f3/4-][A/8d/8f/8]z/8 [c3/4-e3/4-f3/4-a3/4-][c/8e/8f/8a/8]z/8 [A3/4-d3/4-f3/4-][A/8d/8f/8] [Adf] |z/z/8 [G3/8B3/8d3/8]z/ [G/B/d/]z/z/8 [G3/8B3/8d3/8]z/ [G/B/d/] |z/ [G/B/d/]z/4 [G3/4B3/4d3/4] [GBd]z/ [G/B/d/] |z/ [c/d/f/a/]z/ [c/d/f/a/]z/ [G/B/d/]z/ [G/B/d/] | [G3/4-B3/4-d3/4-][G/8B/8d/8][G/8-B/8-d/8-] [G/B/d/][G/B/d/]z/ [G/B/d/]z/ [G/B/d/] | [G3/4-B3/4-d3/4-][G/8B/8d/8][G/8-B/8-d/8-] [G/B/d/][G/B/d/]z/ [G/B/d/]z/ [G/B/d/] |z/ [G/B/d/]z/ [G/B/d/]z/8 [G3/4-c3/4-e3/4-][G/8c/8e/8]z/8 [G3/4-B3/4-d3/4-][G/8B/8d/8] |z/ [c/d/f/a/]z/ [c/d/f/a/]z/8 [G3/4-B3/4-d3/4-][G/8B/8d/8] [GBd] |z/8 [A3/4-d3/4-f3/4-][A/8d/8f/8] [Adf]z/ [A/d/f/]z/ [A/d/f/] |z/ [c/d/f/a/]z/ [c/d/f/a/]z/ [G/B/d/]z/ [G/B/d/] |z/ [G/B/d/]z/4 [G3/4B3/4d3/4] [G2B2d2] |z/8 [c3/4-d3/4-f3/4-a3/4-][c/8d/8f/8a/8] [cdfa]z/8 [G3/4-B3/4-d3/4-][G/8B/8d/8] [GBd] | [G3/4-B3/4-d3/4-][G/8B/8d/8][G/8-B/8-d/8-] [G/B/d/][G/B/d/]z/ [G/B/d/]z/ [G/B/d/] |z/ [G/B/d/]z/4 [G3/4B3/4d3/4] [G2B2d2] |z/ [G/B/d/]z/ [G/B/d/]z/8 [G3/4-c3/4-e3/4-][G/8c/8e/8]z/8 [G3/4-B3/4-d3/4-][G/8B/8d/8] |z/ [c/d/f/a/]z/ [c/d/f/a/] [cdfa] [cdfa] | [G3/4-B3/4-d3/4-][G/8B/8d/8][G/8-B/8-d/8-] [G/B/d/][G/B/d/]z/ [G/B/d/]z/ [G/B/d/] |z/ [G/B/d/]z/ [G/B/d/]z/8 [c3/4-d3/4-f3/4-a3/4-][c/8d/8f/8a/8] [cdfa] |z/8 [G3/4-B3/4-d3/4-][G/8B/8d/8] [GBd]z/8 [A3/4-c3/4-e3/4-][A/8c/8e/8]z/8 [B3/4-d3/4-e3/4-g3/4-][B/8d/8e/8g/8] |z/ [c/e/g/a/]z/ [c/e/g/a/]z/ [G/B/d/]z/ [G/B/d/] |z/ [A/d/f/]z/4 [A3/4d3/4f3/4] [A2d2f2] |z/8 [G3/4-B3/4-d3/4-][G/8B/8d/8] [GBd]z/ [c/e/g/a/]z/ [c/e/g/a/] |z/ [G/B/d/]z/ [G/B/d/]z/ [G/c/e/]z/ [G/c/e/] |z/ [A/c/e/]z/ [A/c/e/]z/ [c/e/g/a/]z/ [c/e/g/a/] |z/ [G/B/d/]z/ [G/B/d/]z/ [F/A/d/]z/ [F/A/d/] |z/ [G/B/d/]z/ [G/B/d/]z/8 [A3/4-c3/4-e3/4-][A/8c/8e/8] [Ace] |z/ [G/B/d/]z/ [G/B/d/]z/8 [G3/4-c3/4-e3/4-][G/8c/8e/8]z/8 [G3/4-B3/4-d3/4-][G/8B/8d/8] |z/8 [A3/4-c3/4-e3/4-][A/8c/8e/8] [Ace]z/ [G/B/d/]z/ [G/B/d/] |z/ [G/B/d/]z/ [G/B/d/]z/ [A/d/f/]z/ [A/d/f/] |z/ [G/B/d/]z/ [G/B/d/]z/8 [A3/4-c3/4-e3/4-][A/8c/8e/8] [Ace] |z/ [G/B/d/]z/ [G/B/d/]z/8 [G3/4-c3/4-e3/4-][G/8c/8e/8]z/8 [G3/4-B3/4-d3/4-][G/8B/8d/8] |z/ [A/c/e/]z/ [A/c/e/]z/ [c/e/g/a/]z/ [c/e/g/a/] |z/ [G/B/d/]z/ [G/B/d/]z/8 [A3/4-d3/4-f3/4-][A/8d/8f/8] [Adf] |z/ [G/B/d/]z/ [G/B/d/]z/8 [A3/4-c3/4-e3/4-][A/8c/8e/8] [Ace] |z/ [G/B/d/]z/ [G/B/d/]z/8 [G3/4-c3/4-e3/4-][G/8c/8e/8]z/8 [G3/4-B3/4-d3/4-][G/8B/8d/8] |z/ [A/c/e/]z/ [A/c/e/]z/ [G/B/d/]z/ [G/B/d/] |z/8 [A3/4-d3/4-f3/4-][A/8d/8f/8]z/8 [c3/4-e3/4-f3/4-a3/4-][c/8e/8f/8a/8]z/ [F/A/d/]z/ [F/A/d/] |z/z/8 [G3/8B3/8d3/8]z/ [G/B/d/]z/ [G/B/d/]z/ [G/B/d/] |z/ [d/4g/4]e/4z/4 d/4B/ G [GBd] |z/ [c/d/f/a/]z/ [c/d/f/a/]z/8 [G3/4-B3/4-d3/4-][G/8B/8d/8] [GBd] |z/ [G/B/d/]z/ [G/B/d/] [GBd] [GBd] |z/ [G/B/d/]z/ [G/B/d/]z/ [G/B/d/]z/ [G/B/d/] |z/ [G/B/d/]z/ [G/B/d/]z/8 [G3/4-c3/4-e3/4-][G/8c/8e/8]z/8 [G3/4-B3/4-d3/4-][G/8B/8d/8] |z/8 [c3/4-d3/4-f3/4-a3/4-][c/8d/8f/8a/8] [cdfa]z/ [G/B/d/]z/ [G/B/d/] |z/8 [A3/4-d3/4-f3/4-][A/8d/8f/8] [Adf]z/ [A/d/f/]z/ [A/d/f/] |z/ [c/d/f/a/]z/ [c/d/f/a/]z/ [G/B/d/]z/ [G/B/d/] |z/ [G/B/d/]z/ [G/B/d/]z/ [G/B/d/]z/ [G/B/d/] |z/ [c/d/f/a/]z/ [c/d/f/a/]z/ [G/B/d/]z/ [G/B/d/] |z/ [G/B/d/]z/ [G/B/d/]z/ [G/B/d/]z/ [G/B/d/] |z/ [G/B/d/]z/4 [G3/4B3/4d3/4] [G2B2d2] |z/ [G/B/d/]z/ [G/B/d/]z/8 [G3/4-c3/4-e3/4-][G/8c/8e/8]z/8 [G3/4-B3/4-d3/4-][G/8B/8d/8] |z/ [A/c/d/f/]z/ [A/c/d/f/]z/ [A/c/d/f/]z/ [A/c/d/f/] |z/ [G/B/d/]z/ [G/B/d/] [GBd] [GBd] |z/ [G/B/d/]z/ [G/B/d/]z/ [c/d/f/a/]z/ [c/d/f/a/] |z/ [G/B/d/]z/ [G/B/d/]z/8 [A3/4-c3/4-e3/4-][A/8c/8e/8]z/8 [B3/4-d3/4-e3/4-g3/4-][B/8d/8e/8g/8] |z/ [c/e/g/a/]z/ [c/e/g/a/]z/ [G/B/d/]z/ [G/B/d/] |z/ [A/d/f/]z/4 [A3/4d3/4f3/4] [A2d2f2] |z/ [G/B/d/]z/ [G/B/d/]z/ [c/e/g/a/]z/ [c/e/g/a/] |z/ [G/B/d/]z/ [G/B/d/]z/8 [G3/4-c3/4-e3/4-][G/8c/8e/8] [Gce] |z/8 [A3/4-c3/4-e3/4-][A/8c/8e/8] [Ace]z/ [c/e/g/a/]z/ [c/e/g/a/] |z/ [G/B/d/]z/ [G/B/d/]z/ [A/d/f/]z/ [A/d/f/] |z/ [G/B/d/]z/ [G/B/d/]z/ [A/c/e/]z/ [A/c/e/] |z/8 [G3/4-B3/4-d3/4-][G/8B/8d/8] [GBd]z/8 [G3/4-c3/4-e3/4-][G/8c/8e/8]z/8 [G3/4-B3/4-d3/4-][G/8B/8d/8] |z/ [A/c/e/]z/ [A/c/e/]z/ [G/B/d/]z/ [G/B/d/] |z/ [G/B/d/]z/ [G/B/d/]z/ [A/d/f/]z/ [A/d/f/] |z/ [G/B/d/]z/ [G/B/d/]z/ [A/c/e/]z/ [A/c/e/] |z/ [G/B/d/]z/ [G/B/d/]z/8 [G3/4-c3/4-e3/4-][G/8c/8e/8]z/8 [G3/4-B3/4-d3/4-][G/8B/8d/8] |z/8 [A3/4-c3/4-e3/4-][A/8c/8e/8] [Ace]z/8 [c3/4-e3/4-g3/4-a3/4-][c/8e/8g/8a/8] [cega] |z/ [G/B/d/]z/ [G/B/d/]z/ [A/d/f/]z/ [A/d/f/] |z/ [G/B/d/]z/ [G/B/d/]z/ [A/c/e/]z/ [A/c/e/] |z/ [G/B/d/]z/ [G/B/d/]z/8 [G3/4-c3/4-e3/4-][G/8c/8e/8]z/8 [G3/4-B3/4-d3/4-][G/8B/8d/8] |z/ [A/c/e/]z/ [A/c/e/]z/ [G/B/d/]z/ [G/B/d/] |z/8 [A3/4-d3/4-f3/4-][A/8d/8f/8]z/8 [c3/4-e3/4-f3/4-a3/4-][c/8e/8f/8a/8]z/ [A/d/f/]z/ [A/d/f/] |z/z/8 [G3/8B3/8d3/8]z/ [G/B/d/]z/z/8 [G3/8B3/8d3/8]z/ [G/B/d/] |z/ [G/B/d/]z/4 [G3/4B3/4d3/4] [GBd]z/ [G/B/d/] |z/ [c/d/f/a/]z/ [c/d/f/a/]z/8 [G3/4-B3/4-d3/4-][G/8B/8d/8] [GBd] |z/ [G/B/d/]z/ [G/B/d/] [GBd] [GBd] | [G3/4-B3/4-d3/4-][G/8B/8d/8][G/8-B/8-d/8-] [G/B/d/][G/B/d/]z/ [G/B/d/]z/ [G/B/d/] |z/ [G/B/d/]z/ [G/B/d/]z/8 [G3/4-c3/4-e3/4-][G/8c/8e/8]z/8 [G3/4-B3/4-d3/4-][G/8B/8d/8] |z/ [c/d/f/a/]z/ [c/d/f/a/]z/ [G/B/d/]z/ [G/B/d/] |z/ [A/d/f/]z/ [A/d/f/]z/8 [A3/4-d3/4-f3/4-][A/8d/8f/8] [Adf] |z/8 [c3/4-d3/4-f3/4-a3/4-][c/8d/8f/8a/8] [cdfa]z/ [G/B/d/]z/ [G/B/d/] |z/ [G/B/d/]z/4 [G3/4B3/4d3/4] [G2B2d2] |z/ [c/d/f/a/]z/ [c/d/f/a/]z/ [G/B/d/]z/ [G/B/d/] |z/ [G/B/d/]z/ [G/B/d/]z/ [G/B/d/]z/ [G/B/d/] |z/ [G/B/d/]z/ [G/B/d/] [GBd] [GBd] |z/8 [G3/4-B3/4-d3/4-][G/8B/8d/8] [GBd]z/8 [G3/4-c3/4-e3/4-][G/8c/8e/8]z/8 [G3/4-B3/4-d3/4-][G/8B/8d/8] |z/ [c/d/f/a/]z/ [c/d/f/a/] [cdfa] [cdfa] |z/ [G/B/d/]z/ [G/B/d/]z/ [G/B/d/]z/ [G/B/d/]|]
[V: P5]  z4 | z4 |z/8 D3/4-D/8 D/8F,3/4-F,/8z/8 [E,3/4-A3/4-][E,/8A/8] [E,A] |z/8 A3/4-A/8 Az/8 c3/4-c/8 A |z/8 E3/4-E/8 E E/8G3/4-G/8 G |z/8 G3/4-G/8 G G/8E,3/4-E,/8z |z/8 F3/4-F/8 F3 | F4 |z/8 D3/4-D/8 D/8C3/4-C/8z/8 [B,3/4-G3/4-][B,/8G/8]z/8 A,3/4-A,/8 |z/8 [B,3/4-G3/4-][B,/8G/8] [B,/4G/4]G,3/4- G,/8B3/4-B/8 B/8G3/4-G/8 | D/8A,3/4-A,/8 A,/8F,3/4-F,/8 F,/8[G,3/4-G3/4-][G,/8G/8] [G,G] |z/8 G,/8G3/4 B, D C | B,/8G3/4-G/8 G Gz/8 A3/4-A/8 |z/8 [G,3/4-B3/4-][G,/8B/8] [G,/8B/8]D3/4-D/8 D/8[C3/4-c3/4-][C/8c/8] [C/8c/8][D3/4-B3/4-][D/8B/8] | [D/8B/8]A3/4-A/8 C B,/8G3/4-G/8 G | [G,/8A,/8]A3/4-A/8 A A/8[F,3/4-D3/4-][F,/8D/8] [F,D] |z/8 D3/4-D/8 D/4A,3/4 G,/8G3/4-G/8 G/8A,3/4-A,/8 | A,/8[B,3/4-G3/4-][B,/8G/8] [B,/8G/8]G,3/4-G,/8 B- B/8G3/4-G/8 | D/4A,3/4 F, G,/8G3/4-G/8 G |z/8 [G,3/4-G3/4-][G,/8G/8] [G,/4G/4]B,/-B,/8D/8- D C | B,/8G3/4-G/8 G G/8[G,3/4-B,3/4-A3/4-][G,/8B,/8A/8] [G,/8B,/8A/8]C3/4-C/8 | C/8D/8[G,3/4-B3/4-] [G,B] [G,/8B/8]c/8C3/4- C/8D/8B3/4- | B/4A/4d/ C A,/4d3/4- d | d/8[G,3/4-B,3/4-G3/4-][G,/8B,/8G/8] [G,3B,3G3] |z/8 [G,3/4-D3/4-d3/4-][G,/8D/8d/8]z/8 e3/4-e/8 d/8F,3/4-F,/8 c |z/8 [G,3/4-c3/4-][G,/8c/8] [G,/8c/8]B3/4-B/8 A/8C3/4-C/8 B/8D3/4-D/8 | D/8[A,3/4-d3/4-][A,/8d/8] c G/8B,3/4-B,/8 B,/8D3/4-D/8 | A2z/8 D3/4-D/8z |z/8 G/8[G,3/4-D3/4-] [G,D] A,/8A/-A/8B/4- B/4c3/4 | B,/8d3/4-d/8 d d/8[C3/4-c3/4-][C/8c/8]z/8 [D3/4-B3/4-][D/8B/8] |z/8 c/8[A,3/4-C3/4-] [A,C] [A,/8C/8]e3/4-e/8 e | e/8[B,3/4-d3/4-][B,/8d/8] [B,d] [B,/8d/8]A,3/4-A,/8 A, |z/8 [B/8c/8][G,3/4-D3/4-] [G,D]z/8 A,/8c3/4- c | c/8[G,3/4-B,3/4-d3/4-e3/4-][G,/8B,/8d/8e/8]z C/8e3/4-e/8 D/8d3/4-d/8 | d/8[E3/4-c3/4-][E/8c/8] [Ec] [E/8c/8][D3/4-B3/4-][D/8B/8] [DB] | B2- B/8A3/4-A/8 A |z/8 [G,3/4-D3/4-B3/4-][G,/8D/8B/8] [G,DB] [G,/8D/8B/8][A,3/4-c3/4-][A,/8c/8] [A,c] | B,/8d3/4-d/8 d [Cc] B/8D3/4-D/8 |z/8 [A,3/4-C3/4-c3/4-][A,/8C/8c/8] [A,Cc] [A,/8C/8c/8]e3/4-e/8 e | e/8[B,3/4-d3/4-][B,/8d/8] [B,d] [B,/8d/8]A,3/4-A,/8 A, |z/8 B/8[G,3/4-D3/4-] [G,D] [G,/8D/8]c/8A,3/4- A, |z/8 [G,3/4-B,3/4-d3/4-][G,/8B,/8d/8] [G,B,d]z/8 [C3/4-e3/4-][C/8e/8]z/8 [D3/4-d3/4-][D/8d/8] |z/8 c/8E3/4- E E/8[D3/4-B3/4-][D/8B/8] [DB] | A- A/8E,3/4-E,/8z2 |z/4 G3/4- G/8[C3/4-D3/4-][C/8D/8] B,/8G3/4-G/8 [A,D] |z/8 [B,3/4-D3/4-][B,/8D/8]z/8 G,3/4-G,/8 G,/8D3/4-D/8 D |z/8 A,/8D/8C/8D/ F, G,2 | D/8G,3/4-G,/8 G,/8B,3/4-B,/8 D- D/8C3/4-C/8 |z/8 B,/8B,3/4z/8 G,3/4-G,/8zz/8 G,3/4-G,/8 | G,/4D3/4 D/4G/4D/ C/4G3/4 [D3/8E3/8]G/-G/8 | C/8F3/4-F/8 F/8A,/C3/8 A,/8D/8B,3/4 [A,E] |z/8 [A,3/4-G3/4-][A,/8G/8] [A,/8G/8]G,3/4-G,/8 G,/8[F,3/4-D3/4-][F,/8D/8]z/8 G,3/4-G,/8 |z/8 [G,3/4-D3/4-][G,/8D/8] [G,/8D/8]A,3/4-A,/8z/8 [G,/D/]A,3/8- A,/8G,3/8A,/ |z/8 [B,3/4-D3/4-][B,/8D/8] [B,/8D/8]G,3/4-G,/8 G,2 | D3/4-D/8A,/8- A,z/8 G,3/4-G,/8 D | G,/4G3/4- G G/8D3/4-D/8z |z/8 B,3/4-B,/8 B,3 | B,/4G3/4z/8 G3/4-G/8z/8 E3/4-E/8z/8 G3/4-G/8 |z/8 F3/4-F/8 Fz/8 F3/4-F/8 F | G4 |z/4 B3/4- B B/8[F,3/4-A3/4-][F,/8A/8] [F,A] | [F,/8A/8][G,3/4-G3/4-][G,/8G/8] [G,G] [G,/8G/8][C3/4-E3/4-][C/8E/8] [C/8E/8]D3/4-D/8 | D/4A,3/4- A,z/8 B,3/4-B,/8 B,/8D3/4-D/8 | D/8F3/4-F/8 F F/4D3/4- D |z/8 G/8B,3/4- B,/4G,3/4 A,/8G3/4-G/8 G |z/8 [B,3/4-G3/4-][B,/8G/8] [B,G] E/8C3/4-C/8 E/8D3/4-D/8 | D/8[A,3/4-C3/4-E3/4-][A,/8C/8E/8] [A,CE]z/8 G3/4-G/8 G |z/8 G/4B,/-B,/8 B, B,/8F3/4-F/8z |z/8 [G,3/4-D3/4-G3/4-][G,/8D/8G/8] [G,DG]z/8 G/8A,3/4- A, | G/4B,3/4- B, G/8C3/4-C/8 B/8D3/4-D/8 |z/8 [E3/4-A3/4-][E/8A/8] [EA] G/4D3/4- D | D/4G3/4- G/8E3/4-E/8 E/8F3/4-F/8z |z/8 [G,3/4-D3/4-G3/4-][G,/8D/8G/8] [G,DG]z/8 [A,3/4-G3/4-][A,/8G/8] [A,G] |z/8 [B,3/4-G3/4-][B,/8G/8] [B,G]z/8 [C3/4-E3/4-][C/8E/8]z/8 [D3/4-E3/4-][D/8E/8] |z/4 [C3/4-E3/4-] [C/8E/8]B,3/4-B,/8 B,/8A,/8G3/4- G/8G,3/4-G,/8 | A,/8G3/4-G/8 G/8G,3/4-G,/8z/8 F3/4-F/8 G, | D/8G3/4-G/8 G/8C3/4-C/8 C/8[B,3/4-G3/4-][B,/8G/8] [B,/8G/8]A,3/4-A,/8 | G/8B,3/4-B,/8 B,/8A,3/4-A,/8 G/8C3/4-C/8 D/8B3/4-B/8 |z/8 [E3/4-A3/4-][E/8A/8] [EA] G/4D3/4- D | F E,2z |z/4 D3/4- D/8C3/4-C/8z/8 B,/8G3/4 A, | G,/4G/4A,/ B,- B,/8[A,3/4-B3/4-][A,/8B/8] [A,/8B/8][G,3/4-G3/4-][G,/8G/8] |z/8 [A,3/4-C3/4-D3/4-][A,/8C/8D/8] [A,/8C/8D/8]F,3/4-F,/8 F,/8[B,/4G/4]G,/-G,/8 G,/8C/8F,3/4- | F,/8[D/8G/8]G,3/4- G,/8F,3/4-F,/8 F,/8G,3/4-G,/8 B, |z/8 [D3/4-G3/4-][D/8G/8] C/B,/ [G,3/8G3/8]B,/G,/8- G,/8A3/8B,/ | G,/8[G3/8B3/8]B,/ G,/-G,/8B,3/8z/8 [D/E/c/]C3/8z/8 [G/8B/8]D3/8C3/8- | C/8[F/8A/8]D/C/4- C/4B,/A,/4- A,/8[D/8G/8]G,3/4- G,/8[A,3/4-E3/4-][A,/8E/8] |z/8 [D/8A/8]A,3/4- A, A,/8[F,3/4-D3/4-][F,/8D/8] [F,D] |z/8 [C3/4-D3/4-][C/8D/8] [C/8D/8]A,3/4-A,/8 A,/8[G,3/4-B,3/4-G3/4-][G,/8B,/8G/8] [G,/8B,/8G/8]A,3/4-A,/8 | A,/8[B,3/4-D3/4-G3/4-][B,/8D/8G/8] [B,/4D/4G/4]G,3/4- G,/8B3/4-B/8 B/8G3/4-G/8 | G/8[A,3/4-C3/4-D3/4-][A,/8C/8D/8] [A,/8C/8D/8]F,3/4-F,/8 F,/8[G,3/4-B,3/4-G3/4-][G,/8B,/8G/8]z/8 C3/4-C/8 |z/8 [D/8G/8]G,3/4- G,/G,/8B,3/8- B,/8D3/4-D/8 D/4C3/4- | C/8[B,3/8D3/8G3/8]G,/- G,/8B,3/8G,/z/8 [B,3/8A3/8]G,/ B,/C/ | D/8B/8G3/4- Gz/8 C/8[E3/4-c3/4-] [E/8c/8][D3/4-G3/4-B3/4-][D/8G/8B/8] |z/8 [F3/4-A3/4-][F/8A/8] [F/8A/8]C3/4-C/8 C/8[A,3/4-d3/4-][A,/8d/8] [A,d] |z/8 [G,3/4-D3/4-G3/4-][G,/8D/8G/8] [G,/8D/8G/8]B,3/4-B,/8 B,/8D3/4-D/8 D/8B,3/4-B,/8 | [B/8d/8]G,3/4-G,/8 G,/8[D/e/]G,3/8 [A/8d/8]F,3/4-F,/8 [D/c/]F,/ | G,/8[G3/4-c3/4-][G/8c/8] B/8D3/8G,/ C/8[E3/8A3/8]G,/- G,/8[D3/8B3/8]G,/- | G,/8[A,/d/]G,3/8- G,/8[A,3/8c3/8]G,/- G,/8[B,3/8G3/8]G,/ B,/D/ |z/8 [D3/8F3/8A3/8]D/z/ D/z/8 C3/4-C/8z/8 A,3/4-A,/8 |z/8 [B,3/4-G3/4-B3/4-][B,/8G/8B/8] [B,/8G/8B/8]G,/B,3/8z/8 [D3/8c3/8]A,/ G,/A,/ | B,/8d3/4-d/8 d/8C/B,3/8 C/8[E3/8c3/8]D/- D/8[C/B/]B,3/8 |z/8 [A,/E/c/]B,3/8 C/A,/ B,/8[G3/8e3/8]G,/- G,/8A,/F,3/8 |z/8 [G,3/8G3/8d3/8]A,/z/ G,/ A,/8F3/4-F/8z/8 [G,3/4A3/4]A,/8- | A,/8[G/4B/4]D/-D/8 D/4G,/D/4- D/8[A,3/4-c3/4-][A,/8c/8] [A,/8c/8]G,/D3/8 |z/8 [D/G/d/]B,3/8- B,/8G,/B,3/8z/8 [C3/8e3/8]D3/8C/8- C/8[B,/d/]C3/8 | D/8[A3/4c3/4]E/8- E3/8D/-D/8 D/8[C3/4-G3/4-B3/4-][C/8G/8B/8] [C/8G/8B/8]D/C3/8 | B,/8[G/8B/8]C/B,/4- B,/8[C/E/]B,3/8 C/8[B,3/8F3/8A3/8]A,/z/8 G,3/4-G,/8 |z/8 [G/8B/8]B,3/4- B, B,/8[D3/4c3/4]A,/8- A, | B,/8[G3/4-d3/4-][G/8d/8] [Gd] C/8[E3/4-c3/4-][E/8c/8] D/8B3/4-B/8 |z/8 C/8[E3/4B3/4c3/4]z/8 A,3/4-A,/8 A,/8[G3/4-e3/4-][G/8e/8] [Ge] |z/8 [G3/4-d3/4-][G/8d/8] B, A,/8F3/4-F/8 F/8A3/4-A/8 |z/8 [G,3/4-G3/4-B3/4-][G,/8G/8B/8] [G,/4G/4B/4]D3/8G,3/8 D/8c3/8A,/ G,/A,/ |z/8 [B,3/4-G3/4-d3/4-][B,/8G/8d/8] [B,3/8G3/8d3/8]C/-C/8 C/8[G3/4-e3/4-][G/8e/8]z/8 [D3/4-B3/4-d3/4-][D/8B/8d/8] |z/8 [A/8c/8][G,3/4-E3/4-] [G,E]z/8 [D3/4-G3/4-B3/4-][D/8G/8B/8] [DGB] |z/4 [F3/4-A3/4-] [F/8A/8]E,3/4-E,/8z2 |z/8 D3/4-D/8 C B,/8G3/4-G/8 G/8A,3/4-A,/8 | A,/8B,/8G3/4- G/8G,3/4-G,/8 G,/8B3/4-B/8 B/8G3/4-G/8 |z/8 A,/8D3/4 F,z/4 G/G,/4- G,/G,/8G,3/8 |z/8 [G,3/4-G3/4-][G,/8G/8]z/8 B,3/4-B,/8 D B, | B,/8G3/4-G/8 G G,/8G3/4-G/8 G/8A3/4-A/8 | A/8[B,3/4-B3/4-][B,/8B/8]z/8 G,3/4-G,/8 G,/8[B,/4c/4]D/-D/8 B,/8B/4C/-C/8 | A,/8A3/8B,/ A,/G,/z/8 [A,3/4-G3/4-][A,/8G/8]z/8 G,3/4-G,/8 |z/8 A/8F,3/4- F,z/8 D3/4-D/8z |z/8 D3/4-D/8 D D/8G3/4-G/8 G |z/8 G3/4-G/8 Gz/8 B3/4-B/8 B/8G3/4-G/8 | G/4[A,3/4D3/4] F, G,/4G3/4- G |z/8 G,/8G3/4- G/8B,3/4-B,/8 D C |z/8 G/8B,3/4- B,z/8 [B,3/4-A3/4-][B,/8A/8] [B,/8A/8]C3/4-C/8 |z/8 [D3/4-B3/4-][D/8B/8] [DB]z/8 C/8c3/4- c/8D/8B3/4- | B/4A3/4- A/8C3/4-C/8 C/8[A,3/4-d3/4-][A,/8d/8] [A,d] |z/4 [G,3/4-B,3/4-G3/4-] [G,3B,3G3]|]
[V: P6]  z4 | z4 |z3z/8 D,3/4-D,/8 |z/8 C,3/4-C,/8 C,/8B,,3/4-B,,/8z/8 A,,3/4-A,,/8 A,, | A,,2 A,,/8C,3/4-C,/8 C, | C,/8G,,3/4-G,,/8 G,,3/8D,/-D,/8 D, D, |z/8 D,/4D,,/-D,,/8 D,,3 | D,,4 | z4 | z4 | z4 | z4 | z4 | z4 | z4 | z4 | z4 | z4 | z4 | z4 | z4 | z4 |z/8 D,3/4-D,/8 D,3 | z4 | z4 | z4 | z4 |z/8 D,3/4-D,/8 D,z2 | z4 | z4 | z4 |z/8 D,3/4-D,/8 D,3 | z4 | z4 | z4 |z/8 D,3/4-D,/8 D,2z | z4 | z4 | z4 |z/8 D,3/4-D,/8 D,3 | z4 | z4 | z4 |z/8 D,3/4-D,/8zz/8 D,3/4-D,/8 D, | z4 | z4 | z4 | z4 |z2z/8 D,3/4-D,/8 D, | z4 | z4 | z4 | z4 | z4 | z4 | z4 | z4 | z4 | z4 | z4 | z4 | z4 | z4 |z/8 D,3/4-D,/8 D,3 | z4 | z4 | z4 |z3/8 D,/-D,/8 D,3 | z4 | z4 | z4 |z/8 D,3/4-D,/8 D,3 | z4 | z4 | z4 |z2 D,z | z4 | z4 | z4 | D,2z/8 D,3/4-D,/8 D, | z4 | z4 | z4 | z4 | z4 | z4 | z4 | z4 | z4 | z4 |z3z/4 D,3/4- | D,z/4 D,3/4z2 | z4 | z4 |z/8 D,3/4-D,/8 D,3 | z4 | z4 | z4 | z4 | D, D,z2 | z4 | z4 | z4 |z D,z2 | z4 | z4 | z4 | z4 | z4 | z4 | z4 | D,4 | z4 | z4 | z4 | D,z D,2 | z4 | z4 |z2z/8 D,3/4-D,/8z | z4 | z4 | z4 | z4 | z4 | z4 | z4 | z4 | z4 | z4 | z4 |z/8 D,3/4-D,/8 D,3 | z4|]

